src/img/twitter.svg

<svg width="24" height="20" viewBox="0 0 24 20" fill="none" xmlns="http://www.w3.org/2000/svg">
<path d="M8.95364 19.8457C7.9158 19.8457 6.84757 19.7617 5.77293 19.5932C3.88017 19.2962 1.96416 18.3062 1.42199 18.0097L0 17.2323L1.53954 16.726C3.22246 16.1726 4.2462 15.8293 5.51347 15.2917C4.24455 14.6772 3.26659 13.5718 2.79583 12.1429L2.43767 11.0556L2.73137 11.1004C2.45287 10.8197 2.23296 10.5348 2.06249 10.2757C1.45623 9.35489 1.13525 8.22971 1.20355 7.26548L1.27093 6.31644L1.8391 6.53653C1.59942 6.0839 1.4262 5.6005 1.3244 5.09384C1.07629 3.85825 1.28393 2.54557 1.90923 1.39768L2.40417 0.489109L3.06609 1.28415C5.15953 3.79892 7.81107 5.29068 10.9581 5.72739C10.8295 4.84134 10.9259 3.98624 11.2446 3.21976C11.6158 2.3273 12.2761 1.57053 13.1535 1.0311C14.128 0.432163 15.3098 0.141941 16.4811 0.213901C17.7238 0.290256 18.8521 0.755893 19.7482 1.56137C20.1858 1.44767 20.5083 1.32627 20.9441 1.1622C21.2063 1.06351 21.5036 0.95145 21.8757 0.823276L23.2468 0.350864L22.3527 2.90445C22.4117 2.89951 22.4724 2.8953 22.536 2.89255L24.0001 2.82627L23.1347 4.00894C23.0851 4.07669 23.0725 4.09592 23.0549 4.12247C22.9851 4.22757 22.8983 4.35831 21.7105 5.94437C21.4132 6.34153 21.2647 6.8588 21.2923 7.40116C21.3976 9.46219 21.1448 11.3269 20.5403 12.9434C19.9687 14.4727 19.0828 15.7848 17.9076 16.8434C16.4534 18.1529 14.5991 19.0496 12.396 19.5081C11.3153 19.7329 10.1548 19.8457 8.95364 19.8457Z" fill="black"/>
</svg>

<svg xmlns="http://www.w3.org/2000/svg" fill="none" viewBox="0 0 24 20">
  <path fill="#000" d="M8.954 19.846c-1.038 0-2.106-.084-3.181-.253-1.893-.297-3.809-1.287-4.351-1.583L0 17.232l1.54-.506c1.682-.553 2.706-.897 3.973-1.434-1.268-.615-2.246-1.72-2.717-3.15l-.358-1.086.293.044a5.34 5.34 0 01-.669-.824c-.606-.921-.927-2.046-.858-3.01l.067-.95.568.22a5.311 5.311 0 01-.515-1.442c-.248-1.236-.04-2.548.585-3.696l.495-.909.662.795C5.16 3.8 7.811 5.291 10.958 5.727c-.129-.886-.032-1.74.287-2.507.37-.893 1.031-1.65 1.909-2.189A5.734 5.734 0 0116.48.214c1.243.076 2.371.542 3.267 1.347.438-.113.76-.235 1.196-.399.262-.098.56-.21.932-.339l1.37-.472-.893 2.553c.059-.004.12-.009.183-.011L24 2.826l-.865 1.183c-.05.068-.063.087-.08.113-.07.106-.157.236-1.345 1.822a2.238 2.238 0 00-.418 1.457c.106 2.061-.147 3.926-.752 5.542a9.807 9.807 0 01-2.632 3.9c-1.455 1.31-3.309 2.207-5.512 2.665-1.08.225-2.241.338-3.442.338z"/>
</svg>
